X:1
T:Title
%%score { ( 1 3 ) | ( 2 4 ) }
L:1/8
M:6/8
K:Bb
V:1 treble nm="Grand Piano"
V:3 treble 
V:2 bass 
V:4 bass 
V:1
 z3 z2[Q:1/4=100] [DF] | [DF][EG][DF] [B,D][DF][DB] | [Fd]2 [Ge] [Fd]2 [Fc] | %3
 [GB][FA][Ac] [GB][FA][EG] | [DF]3- [DF]2 [FB] | [EA][EA][EA] [DB][DB][DB] | c2 c d2 [Fd] | %7
 [=Ec][Ec][Ec] GAB |[M:5/8] c-c- c3 |[M:1/8] F |[M:3/4] [DF][Fd] [Fd][Fd] [Ec][DB] | [EA]6 | %12
 Fe ee dc | [Fd]6 | [DF][DG] [DA] [DB]2 [DB] |[M:7/8] Bcd [Ge]3 [Ge] |[M:3/4] dc BA Bc | %17
[M:5/8] B-B- B3 |] %18
V:2
 z3 z2 [B,,B,] | [B,,B,][B,,B,][B,,B,] [B,,F,][B,,B,][B,,B,] | [B,,B,]2 [B,,B,] [B,,B,]2 [D,B,] | %3
 [E,E][E,E][E,E] [E,B,][E,B,][E,B,] | [B,,B,]3- [B,,B,]2 [D,B,] | %5
 [C,F,][C,F,][C,F,] [B,,F,][B,,F,][B,,F,] | [F,A,F]2 [F,A,F] [B,F]2[K:bass] [B,,B,] | %7
 [C,G,][C,G,][C,G,] [B,C=E][A,CE][G,B,E] |[M:5/8] [F,A,E]-[F,A,E]- [F,A,E]3 |[M:1/8] [F,A,E] | %10
[M:3/4] [B,,B,][B,,B,] [B,,B,][B,,B,] [B,,B,][B,,B,] | [F,C]F, F, F,2 [F,A,] | %12
 [F,A,][F,A,F] [F,A,F][F,CF] [F,B,F][F,A,F] | [B,,B,]D, F, B,2 [B,,B,] | %14
 [B,,B,][B,,B,] [B,,B,] [B,,F,]2 [B,,B,] | %15
[M:7/8][K:treble] [B,D][B,E][B,F][K:bass] [E,B,]3 [E,B,] | %16
[M:3/4] [F,B,F][F,A,E] [F,B,D][F,CE] [F,B,D][F,A,E] |[M:5/8] z B,G, F,2 |] %18
V:3
 x6 | x6 | x6 | x6 | x6 | x6 | x6 | x6 |[M:5/8] x5 |[M:1/8] x |[M:3/4] x6 | z C C C2 F | x6 | %13
 z B, .B,2 z [DF] | x6 |[M:7/8] x7 |[M:3/4] x6 |[M:5/8] [B,D]DE D2 |] %18
V:4
 x6 | x6 | x6 | x6 | x6 | x6 | x5[K:bass] x | x6 |[M:5/8] x5 |[M:1/8] x |[M:3/4] x6 | x6 | x6 | %13
 x6 | x6 |[M:7/8][K:treble] x3[K:bass] x4 |[M:3/4] x6 |[M:5/8] B,,-B,,- B,,3 |] %18

